X:1
T:An dro : Bignan, Baud, St Armel
Z:Roger Ngaret (Novembre 99)
R:
C:Trad.
S:
A:Bretagne
Q:1/4=112
M:2/4
L:1/16
K:G
"G"G2Bc d2d2 | B2G2 ABA2 | G2Bc d2d2 | B2G2 A4 ::
d2dd B2d2 | "D"e2d2 B4 | "G"G2GG A2c2 | "F"B2A2 G4 |:
"D"A2GF G3A | "G"c2B2 GGG2 | A2G2 G3A c2B2 G4 ||
G2Ad c3d | A2d2 G2G2 | GAGF E2D2 | G2AB c3B |
A2d2 G2G2 | GFEF G4 | "D"A2BB e2e2 |
"G"d2e2 dcB2 | "D"A2BB e2e2 | "G"d2c2 B4 ::
d2dd c2A2 | B2c2 A2G2 | "D"A2Bc d2e2 | "G"B2c2 B4 :|
